static/pay/visa.svg

<svg width="80" height="44" viewBox="0 0 80 44" fill="none" xmlns="http://www.w3.org/2000/svg">
<g clip-path="url(#clip0)">
<path d="M32.7001 9.90454L28.685 34.8896H35.1025L39.1151 9.90454H32.7001ZM52.0575 20.082C49.8149 18.9746 48.4401 18.2271 48.4401 17.0944C48.4675 16.0646 49.6027 15.0095 52.1376 15.0095C54.2226 14.9571 55.755 15.4471 56.9176 15.9346L57.5 16.1945L58.3725 10.967C57.1049 10.4771 55.0951 9.93717 52.6125 9.93717C46.2751 9.93717 41.8126 13.2321 41.7849 17.9447C41.7325 21.4223 44.9798 23.3521 47.41 24.5097C49.8925 25.6972 50.7376 26.4672 50.7376 27.5223C50.7102 29.1422 48.7302 29.8897 46.8827 29.8897C44.3228 29.8897 42.9477 29.5047 40.8603 28.6021L40.0153 28.2171L39.1178 33.6497C40.6253 34.3198 43.3977 34.9096 46.2754 34.9398C53.0104 34.9398 57.3928 31.6947 57.4479 26.6723C57.4698 23.9172 55.7575 21.807 52.0575 20.082ZM74.8249 9.98186H69.8598C68.3298 9.98186 67.1672 10.4219 66.5048 11.992L56.9722 34.8896H63.7072L65.5621 29.9322H73.0972L74.0596 34.9096H79.9997L74.8249 9.98186ZM67.4299 24.9292C67.5599 24.9418 70.015 16.8367 70.015 16.8367L71.97 24.9292C71.97 24.9292 68.6975 24.9292 67.4299 24.9292ZM23.3226 9.90454L17.0351 26.8796L16.3502 23.5319C15.1876 19.6694 11.5428 15.472 7.4751 13.3871L13.2326 34.8646H20.0227L30.1128 9.90728H23.3226V9.90454Z" fill="#2394BC"/>
<path d="M14.235 13.1266C13.745 11.2215 12.1824 9.9366 10.0601 9.90918H0.102548L0 10.3715C7.76762 12.2864 14.2874 18.1788 16.4025 23.7214L14.235 13.1266Z" fill="#EFC75E"/>
</g>
<defs>
<clipPath id="clip0">
<rect width="80" height="44" fill="white"/>
</clipPath>
</defs>
</svg>

<svg width="80" height="44" fill="none" xmlns="http://www.w3.org/2000/svg"><g clip-path="url(#clip0)"><path d="M32.7 9.905L28.685 34.89h6.418l4.012-24.985H32.7zm19.357 10.177c-2.242-1.107-3.617-1.855-3.617-2.988.028-1.03 1.163-2.085 3.698-2.085 2.085-.052 3.617.438 4.78.926l.582.26.873-5.228c-1.268-.49-3.278-1.03-5.76-1.03-6.338 0-10.8 3.295-10.828 8.008-.052 3.477 3.195 5.407 5.625 6.565 2.483 1.187 3.328 1.957 3.328 3.012-.028 1.62-2.008 2.368-3.855 2.368-2.56 0-3.935-.385-6.023-1.288l-.845-.385-.897 5.433c1.507.67 4.28 1.26 7.157 1.29 6.735 0 11.118-3.245 11.173-8.268.022-2.755-1.69-4.865-5.39-6.59zm22.768-10.1H69.86c-1.53 0-2.693.44-3.355 2.01L56.972 34.89h6.735l1.855-4.958h7.535l.963 4.978H80L74.825 9.982zM67.43 24.929c.13.013 2.585-8.092 2.585-8.092l1.955 8.092h-4.54zM23.323 9.905L17.035 26.88l-.685-3.348c-1.162-3.863-4.807-8.06-8.875-10.145l5.758 21.478h6.79l10.09-24.958h-6.79v-.002z" fill="#2394BC"/><path d="M14.235 13.127c-.49-1.905-2.053-3.19-4.175-3.218H.103L0 10.371c7.768 1.915 14.287 7.808 16.402 13.35l-2.167-10.594z" fill="#EFC75E"/></g><defs><clipPath id="clip0"><path fill="#fff" d="M0 0h80v44H0z"/></clipPath></defs></svg>
